icons/solid/file-text.svg

<svg width="24" height="24" viewBox="0 0 24 24" fill="none" xmlns="http://www.w3.org/2000/svg">
<path fill-rule="evenodd" clip-rule="evenodd" d="M3 19C3 20.6569 4.34315 22 6 22H18C19.6569 22 21 20.6569 21 19V8.82843C21 8.03278 20.6839 7.26972 20.1213 6.70711L16.2929 2.87868C15.7303 2.31607 14.9672 2 14.1716 2H6C4.34315 2 3 3.34315 3 5V19ZM8 12C7.44772 12 7 12.4477 7 13C7 13.5523 7.44772 14 8 14H16C16.5523 14 17 13.5523 17 13C17 12.4477 16.5523 12 16 12H8ZM8 16C7.44772 16 7 16.4477 7 17C7 17.5523 7.44772 18 8 18H12C12.5523 18 13 17.5523 13 17C13 16.4477 12.5523 16 12 16H8Z" fill="currentColor"/>
</svg>

<svg width="24" height="24" fill="none" xmlns="http://www.w3.org/2000/svg"><path fill-rule="evenodd" clip-rule="evenodd" d="M3 19a3 3 0 003 3h12a3 3 0 003-3V8.828a3 3 0 00-.879-2.12l-3.828-3.83A3 3 0 0014.172 2H6a3 3 0 00-3 3v14zm5-7a1 1 0 100 2h8a1 1 0 100-2H8zm0 4a1 1 0 100 2h4a1 1 0 100-2H8z" fill="currentColor"/></svg>
